dist/img/help/help-2.svg

<svg width="87" height="87" viewBox="0 0 87 87" fill="none" xmlns="http://www.w3.org/2000/svg">
<path d="M85.9311 27.008L57.1723 8.38343C56.5981 8.0116 55.8335 8.17887 55.4642 8.75645C55.095 9.33421 55.2608 10.1039 55.8348 10.4757L84.1732 28.828H77.567L45.308 7.93668C44.2098 7.22552 42.7904 7.22569 41.692 7.93668L9.433 28.828H2.82677L43.4985 2.48647L49.2587 6.21675C49.8328 6.58841 50.5973 6.42148 50.9667 5.84372C51.336 5.26597 51.1701 4.49631 50.5961 4.12448L44.8359 0.394194C44.0244 -0.131398 42.9758 -0.131398 42.1642 0.394194L1.06892 27.008C0.193824 27.5748 -0.196997 28.6308 0.0964582 29.6358C0.389914 30.6408 1.28625 31.316 2.32686 31.316H8.56028V35.6039V39.3591C8.56028 40.3493 9.25798 41.1784 10.1844 41.3746V43.564C10.1844 44.6997 11.1023 45.6236 12.2306 45.6236H12.4005V60.8649C12.4005 61.552 12.9538 62.1089 13.6364 62.1089C14.3189 62.1089 14.8722 61.552 14.8722 60.8649V44.3797C14.8722 43.6926 14.3189 43.1358 13.6364 43.1358H12.6563V41.4186H21.4094V43.1354H20.4293C19.7468 43.1354 19.1935 43.6923 19.1935 44.3794V71.8641C19.1935 72.5511 19.7468 73.108 20.4293 73.108H21.4094V74.9748H12.6563V73.108H13.6364C14.3189 73.108 14.8722 72.5511 14.8722 71.8641V68.6845C14.8722 67.9975 14.3189 67.4406 13.6364 67.4406C12.9538 67.4406 12.4005 67.9975 12.4005 68.6845V70.6201H12.2306C11.1023 70.6201 10.1844 71.5439 10.1844 72.6796V74.869C9.25781 75.0652 8.56028 75.8943 8.56028 76.8845V79.3956H4.1824C2.81623 79.3956 1.70477 80.5143 1.70477 81.8895V84.5061C1.70477 85.8813 2.81623 87 4.1824 87H82.8176C84.1838 87 85.2952 85.8813 85.2952 84.5061V81.8895C85.2952 80.5143 84.1838 79.3956 82.8176 79.3956H78.4397V76.8845C78.4397 75.8943 77.742 75.0652 76.8156 74.869V72.6796C76.8156 71.5439 75.8977 70.6201 74.7694 70.6201H74.5995V45.6233H74.7694C75.8977 45.6233 76.8156 44.6994 76.8156 43.5637V41.3743C77.7422 41.1781 78.4397 40.3489 78.4397 39.3588V35.6035V31.3157H84.6731C85.7137 31.3157 86.6101 30.6404 86.9035 29.6354C87.197 28.6308 86.8062 27.5746 85.9311 27.008ZM43.0293 10.029C43.3153 9.84373 43.6847 9.8439 43.9707 10.029L72.999 28.8281H14.0012L43.0293 10.029ZM11.032 31.3158H75.9679V34.3598H62.7306H50.7366H36.2634H24.2694H11.032V31.3158ZM50.3485 74.8693V72.6799C50.3485 71.5442 49.4306 70.6205 48.3023 70.6205H48.1324V45.6236H48.3023C49.4306 45.6236 50.3485 44.6997 50.3485 43.564V41.3746C51.2751 41.1784 51.9727 40.3493 51.9727 39.3591V36.8478H61.4948V39.3591C61.4948 40.3493 62.1925 41.1784 63.1189 41.3746V43.564C63.1189 44.6997 64.0368 45.6236 65.1651 45.6236H65.335V70.6205H65.1651C64.0368 70.6205 63.1189 71.5442 63.1189 72.6799V74.8693C62.1925 75.0655 61.4948 75.8947 61.4948 76.8848V79.3959H51.9727V76.8848C51.9727 75.8947 51.275 75.0655 50.3485 74.8693ZM23.8811 74.8693V72.6799C23.8811 71.5442 22.9632 70.6205 21.8349 70.6205H21.665V45.6236H21.8349C22.9632 45.6236 23.8811 44.6997 23.8811 43.564V41.3746C24.8076 41.1784 25.5053 40.3493 25.5053 39.3591V36.8478H35.0275V39.3591C35.0275 40.3493 35.7252 41.1784 36.6516 41.3746V43.564C36.6516 44.6997 37.5695 45.6236 38.6978 45.6236H38.8678V70.6205H38.6978C37.5695 70.6205 36.6516 71.5442 36.6516 72.6799V74.8693C35.7252 75.0655 35.0275 75.8947 35.0275 76.8848V79.3959H25.5053V76.8848C25.5053 75.8947 24.8076 75.0655 23.8811 74.8693ZM46.8966 73.108H47.8767V74.9748H39.1235V73.108H40.1036C40.7862 73.108 41.3394 72.5511 41.3394 71.8641V44.3795C41.3394 43.6925 40.7862 43.1354 40.1036 43.1354H39.1235V41.4186H47.8767V43.1354H46.8966C46.214 43.1354 45.6607 43.6923 45.6607 44.3794V71.8641C45.6607 72.5511 46.214 73.108 46.8966 73.108ZM37.8875 38.9307H37.882H37.4992V36.8478H49.5008V38.9307H49.1125C49.1117 38.9307 49.1107 38.9309 49.1098 38.9309C49.109 38.9309 49.1079 38.9307 49.1071 38.9307H37.8875ZM37.4992 77.4015C37.6198 77.441 37.7483 77.4631 37.882 77.4631H49.1069C49.2447 77.4631 49.3769 77.4393 49.5008 77.3974V79.3958H37.4992V77.4015ZM11.4204 38.9307H11.0321V36.8478H23.0337V38.9307H23.0336H22.6453H11.4204ZM11.032 77.3994C11.1541 77.4401 11.2845 77.4631 11.4202 77.4631H22.6453C22.7811 77.4631 22.9114 77.4401 23.0336 77.3994V79.3958H11.032V77.3994ZM82.8235 81.8896L82.8201 84.5121C82.8201 84.5121 82.8195 84.5123 82.8176 84.5123L4.17646 84.5065L4.1824 81.8838L82.8235 81.8896ZM75.5762 77.4629C75.7133 77.4629 75.8447 77.4395 75.968 77.3981V79.3958H63.9664V77.4006C64.0876 77.4407 64.2167 77.4629 64.3513 77.4629H75.5762ZM66.5707 43.1356H65.5906V41.4186H74.3438V43.1354H73.3636C72.6811 43.1354 72.1278 43.6923 72.1278 44.3794V71.8641C72.1278 72.5511 72.6811 73.1082 73.3636 73.1082H74.3438V74.975H65.5906V73.1082H66.5707C67.2532 73.1082 67.8065 72.5513 67.8065 71.8642V44.3795C67.8065 43.6925 67.2532 43.1356 66.5707 43.1356ZM75.9682 38.9307H75.5798C75.5793 38.9307 75.5786 38.9309 75.5781 38.9309C75.5776 38.9309 75.5769 38.9307 75.5764 38.9307H64.3549H64.3515H63.9666V36.8478H75.9682V38.9307Z" fill="white"/>
</svg>

<svg width="87" height="87" fill="none" xmlns="http://www.w3.org/2000/svg"><path d="M85.931 27.008 57.172 8.383a1.231 1.231 0 0 0-1.708.373 1.249 1.249 0 0 0 .37 1.72l28.34 18.352h-6.607L45.308 7.937a3.331 3.331 0 0 0-3.616 0L9.433 28.828H2.827L43.498 2.486l5.76 3.73a1.231 1.231 0 0 0 1.709-.372 1.249 1.249 0 0 0-.37-1.72L44.835.394a2.46 2.46 0 0 0-2.672 0L1.07 27.008a2.331 2.331 0 0 0-.973 2.628 2.31 2.31 0 0 0 2.23 1.68H8.56v8.043c0 .99.698 1.82 1.624 2.016v2.189c0 1.136.918 2.06 2.047 2.06h.17v15.24a1.24 1.24 0 0 0 1.235 1.245 1.24 1.24 0 0 0 1.236-1.244V44.38a1.24 1.24 0 0 0-1.236-1.244h-.98v-1.717h8.753v1.716h-.98a1.24 1.24 0 0 0-1.235 1.244v27.485a1.24 1.24 0 0 0 1.235 1.244h.98v1.867h-8.753v-1.867h.98a1.24 1.24 0 0 0 1.236-1.244v-3.18a1.24 1.24 0 0 0-1.236-1.243 1.24 1.24 0 0 0-1.236 1.243v1.936h-.17a2.055 2.055 0 0 0-2.046 2.06v2.189a2.06 2.06 0 0 0-1.624 2.016v2.51H4.182a2.489 2.489 0 0 0-2.477 2.495v2.616A2.489 2.489 0 0 0 4.182 87h78.636a2.489 2.489 0 0 0 2.477-2.494V81.89a2.489 2.489 0 0 0-2.477-2.493H78.44v-2.511c0-.99-.698-1.82-1.624-2.016v-2.19a2.055 2.055 0 0 0-2.047-2.059h-.17V45.623h.17a2.055 2.055 0 0 0 2.047-2.06v-2.189a2.06 2.06 0 0 0 1.624-2.015v-8.043h6.233a2.31 2.31 0 0 0 2.23-1.68 2.33 2.33 0 0 0-.972-2.628ZM43.03 10.029a.867.867 0 0 1 .942 0L73 28.829H14.001l29.028-18.8ZM11.032 31.316h64.936v3.044H11.032v-3.044Zm39.317 43.553v-2.19a2.055 2.055 0 0 0-2.047-2.058h-.17V45.624h.17a2.055 2.055 0 0 0 2.047-2.06v-2.19a2.06 2.06 0 0 0 1.624-2.015v-2.511h9.522v2.511c0 .99.698 1.82 1.624 2.016v2.189c0 1.136.918 2.06 2.046 2.06h.17V70.62h-.17a2.055 2.055 0 0 0-2.046 2.059v2.19a2.06 2.06 0 0 0-1.624 2.015v2.51h-9.522v-2.51c0-.99-.698-1.82-1.624-2.016Zm-26.468 0v-2.19a2.054 2.054 0 0 0-2.046-2.058h-.17V45.624h.17a2.055 2.055 0 0 0 2.046-2.06v-2.19a2.06 2.06 0 0 0 1.624-2.015v-2.511h9.523v2.511c0 .99.697 1.82 1.624 2.016v2.189c0 1.136.917 2.06 2.046 2.06h.17V70.62h-.17a2.055 2.055 0 0 0-2.046 2.059v2.19a2.06 2.06 0 0 0-1.624 2.015v2.51h-9.523v-2.51c0-.99-.697-1.82-1.624-2.016Zm23.016-1.761h.98v1.867h-8.754v-1.867h.98a1.24 1.24 0 0 0 1.236-1.244V44.38a1.24 1.24 0 0 0-1.235-1.244h-.98V41.42h8.753v1.716h-.98a1.24 1.24 0 0 0-1.236 1.244v27.485a1.24 1.24 0 0 0 1.236 1.244Zm-9.01-34.177H37.5v-2.083h12.002v2.083H37.887ZM37.5 77.4c.12.04.25.062.383.062h11.225c.138 0 .27-.024.394-.066v1.999H37.499V77.4ZM11.42 38.931h-.388v-2.083h12.002v2.083H11.42Zm-.388 38.468c.122.041.252.064.388.064h11.225c.136 0 .266-.023.389-.064v1.997H11.032v-1.997Zm71.791 4.49-.003 2.623h-.002l-78.642-.005.006-2.623 78.641.006Zm-7.247-4.426c.137 0 .269-.023.392-.065v1.998H63.966V77.4c.122.04.25.062.385.062h11.225Zm-9.005-34.327h-.98v-1.717h8.753v1.716h-.98a1.24 1.24 0 0 0-1.236 1.244v27.485a1.24 1.24 0 0 0 1.236 1.244h.98v1.867H65.59v-1.867h.98a1.24 1.24 0 0 0 1.236-1.244V44.38a1.24 1.24 0 0 0-1.236-1.243Zm9.397-4.205H63.967v-2.083h12.001v2.083Z" fill="#fff"/></svg>
